X: 72
T:Marachienne
M:2/4
L:1/8
S:Vendee
R:Marachienne
Z:Steve Mansfield
K:C
g2dg | fe de/f/ | g2dg | fed2 :|
|: cBcd/e/ | fe de/d/ | cB cd/e/ | fed2 :|

